img/check-on.svg

<svg width="16" height="16" fill="none" xmlns="http://www.w3.org/2000/svg"><path fill-rule="evenodd" clip-rule="evenodd" d="M1.61532 1.61526a.96189.96189 0 0 1 .6803-.28193h8.95888c.3682 0 .6667-.29847.6667-.66666 0-.3682-.2985-.66667-.6667-.66667H2.29562a2.2952 2.2952 0 0 0-1.6233.67265 2.29658 2.29658 0 0 0-.67226 1.62359V13.7033c0 .6089.24178 1.1929.67225 1.6236a2.29541 2.29541 0 0 0 1.62331.6726H13.6978c.6089 0 1.1929-.242 1.6233-.6726a2.29664 2.29664 0 0 0 .6723-1.6236V7.99976c0-.36819-.2985-.66666-.6667-.66666-.3682 0-.6666.29847-.6666.66666v5.70354c0 .2555-.1015.5004-.282.681a.96195.96195 0 0 1-.6803.2819H2.29562a.96207.96207 0 0 1-.6803-.2819.96334.96334 0 0 1-.28193-.681V2.29624a.96328.96328 0 0 1 .28193-.68098Zm14.20138.32514c.2532-.2673.2418-.68925-.0255-.94247-.2673-.25321-.6893-.2418-.9425.0255L7.61408 8.66042l-1.8316-1.93347c-.25321-.26729-.67516-.27871-.94246-.0255-.2673.25322-.27871.67517-.0255.94247L7.1301 10.0883a.66668.66668 0 0 0 .48398.2082.66668.66668 0 0 0 .48398-.2082l7.71864-8.1479Z" fill="#2D3440"/></svg>

<svg width="16" height="16" viewBox="0 0 16 16" fill="none" xmlns="http://www.w3.org/2000/svg">
<path fill-rule="evenodd" clip-rule="evenodd" d="M1.61532 1.61526C1.7958 1.43471 2.04051 1.33333 2.29562 1.33333H11.2545C11.6227 1.33333 11.9212 1.03486 11.9212 0.666667C11.9212 0.298477 11.6227 0 11.2545 0H2.29562C1.68671 0 1.10279 0.241993 0.672314 0.672654C0.241845 1.1033 6.10352e-05 1.68733 6.10352e-05 2.29624V13.7033C6.10352e-05 14.3122 0.241845 14.8962 0.672314 15.3269C1.10279 15.7575 1.68671 15.9995 2.29562 15.9995H13.6978C14.3067 15.9995 14.8907 15.7575 15.3211 15.3269C15.7516 14.8962 15.9934 14.3122 15.9934 13.7033V7.99976C15.9934 7.63157 15.6949 7.3331 15.3267 7.3331C14.9585 7.3331 14.6601 7.63157 14.6601 7.99976V13.7033C14.6601 13.9588 14.5586 14.2037 14.3781 14.3843C14.1977 14.5648 13.9529 14.6662 13.6978 14.6662H2.29562C2.04051 14.6662 1.7958 14.5648 1.61532 14.3843C1.43484 14.2037 1.33339 13.9588 1.33339 13.7033V2.29624C1.33339 2.04077 1.43484 1.79582 1.61532 1.61526ZM15.8167 1.9404C16.0699 1.6731 16.0585 1.25115 15.7912 0.997933C15.5239 0.74472 15.1019 0.756136 14.8487 1.02343L7.61408 8.66042L5.78248 6.72695C5.52927 6.45966 5.10732 6.44824 4.84002 6.70145C4.57272 6.95467 4.56131 7.37662 4.81452 7.64392L7.1301 10.0883C7.256 10.2212 7.43101 10.2965 7.61408 10.2965C7.79715 10.2965 7.97216 10.2212 8.09806 10.0883L15.8167 1.9404Z" fill="#2D3440"/>
</svg>
